X: 33897
T: Red Lyon Hornpipe, The
R: three-two
M: 3/2
K: Dmajor
|:dfef FGAB A2E2|dfef Adce d2D2|dfef FGAB A2ba|gfed Adce d2D2:|
|:dfaf dfed c2A2|FAdA BABG F2D2|dfaf dfed c2A2|FAdA Fdce d2D2:|

